src/assets/images/flags/Flag_of_the_United_Kingdom.svg

<svg xmlns="http://www.w3.org/2000/svg" width="2560" height="1536" style="shape-rendering:geometricPrecision;text-rendering:geometricPrecision;image-rendering:optimizeQuality;fill-rule:evenodd;clip-rule:evenodd"><path style="opacity:1" fill="#fefefe" d="M.5-.5h298c241.354 145.1 482.854 290.1 724.5 435 .5-145 .67-290 .5-435h102v614H-.5v-102c184.667.167 369.334 0 554-.5A311359.01 311359.01 0 0 1-.5 178.5v-59a162908.853 162908.853 0 0 1 653 391.5c66.667.667 133.333.667 200 0A528150.308 528150.308 0 0 1 .5-.5z"/><path style="opacity:1" fill="#012169" d="M298.5-.5h725c.17 145 0 290-.5 435A739774.241 739774.241 0 0 1 298.5-.5z"/><path style="opacity:1" fill="#c8112e" d="M1125.5-.5h308v614h1126v308h-1126v614h-308v-614H-.5v-308h1126V-.5z"/><path style="opacity:1" fill="#fefefe" d="M1433.5-.5h102c-.17 145 0 290 .5 435 241.65-144.9 483.15-289.9 724.5-435h99a1094488.182 1094488.182 0 0 0-823.5 495c-.5 5.657-.67 11.324-.5 17 57.33.167 114.67 0 172-.5a801493.382 801493.382 0 0 0 851-511.5h1v179a313888.929 313888.929 0 0 1-554 332.5c184.67.5 369.33.667 554 .5v102h-1126V-.5z"/><path style="opacity:1" fill="#012169" d="M1535.5-.5h725c-241.35 145.1-482.85 290.1-724.5 435-.5-145-.67-290-.5-435z"/><path style="opacity:1" fill="#c8112e" d="M2359.5-.5h199a801493.382 801493.382 0 0 1-851 511.5c-57.33.5-114.67.667-172 .5-.17-5.676 0-11.343.5-17 274.48-165.152 548.98-330.152 823.5-495zM-.5-.5h1a528150.308 528150.308 0 0 0 852 511.5c-66.667.667-133.333.667-200 0A162908.853 162908.853 0 0 0-.5 119.5V-.5z"/><path style="opacity:1" fill="#012169" d="M-.5 178.5a311359.01 311359.01 0 0 0 554 332.5c-184.666.5-369.333.667-554 .5v-333zM2559.5 178.5v333c-184.67.167-369.33 0-554-.5a313888.929 313888.929 0 0 0 554-332.5z"/><path style="opacity:1" fill="#fefefe" d="M-.5 921.5h1126v614h-102c.17-145 0-290-.5-435a739774.241 739774.241 0 0 0-724.5 435h-99c274.519-164.85 549.019-329.85 823.5-495 .5-5.66.67-11.32.5-17-57.334-.17-114.668 0-172 .5a790583.831 790583.831 0 0 0-851 511.5h-1v-179a307233.128 307233.128 0 0 1 554-332.5c-184.666-.5-369.333-.67-554-.5v-102zM2559.5 921.5v102c-184.67-.17-369.33 0-554 .5 184.81 110.66 369.48 221.49 554 332.5v59a162111.638 162111.638 0 0 1-653-391.5 9950.5 9950.5 0 0 0-200 0 521549.38 521549.38 0 0 1 852 511.5h-298c-241.35-145.1-482.85-290.1-724.5-435-.5 145-.67 290-.5 435h-102v-614h1126z"/><path style="opacity:1" fill="#012169" d="M-.5 1023.5c184.667-.17 369.334 0 554 .5a307233.128 307233.128 0 0 0-554 332.5v-333z"/><path style="opacity:1" fill="#c8112e" d="M199.5 1535.5H.5a790583.831 790583.831 0 0 1 851-511.5c57.332-.5 114.666-.67 172-.5.17 5.68 0 11.34-.5 17a1112124.483 1112124.483 0 0 1-823.5 495zM2559.5 1415.5v120h-1a521549.38 521549.38 0 0 0-852-511.5 9950.5 9950.5 0 0 1 200 0c217.39 131.03 435.06 261.53 653 391.5z"/><path style="opacity:1" fill="#012169" d="M2559.5 1023.5v333a309696.177 309696.177 0 0 0-554-332.5c184.67-.5 369.33-.67 554-.5zM1023.5 1535.5h-725c241.354-145.1 482.854-290.1 724.5-435 .5 145 .67 290 .5 435zM2260.5 1535.5h-725c-.17-145 0-290 .5-435 241.65 144.9 483.15 289.9 724.5 435z"/></svg>

<?xml version="1.0" encoding="UTF-8"?>
<!DOCTYPE svg PUBLIC "-//W3C//DTD SVG 1.1//EN" "http://www.w3.org/Graphics/SVG/1.1/DTD/svg11.dtd">
<svg xmlns="http://www.w3.org/2000/svg" version="1.1" width="2560px" height="1536px" style="shape-rendering:geometricPrecision; text-rendering:geometricPrecision; image-rendering:optimizeQuality; fill-rule:evenodd; clip-rule:evenodd" xmlns:xlink="http://www.w3.org/1999/xlink">
<g><path style="opacity:1" fill="#fefefe" d="M 0.5,-0.5 C 99.8333,-0.5 199.167,-0.5 298.5,-0.5C 539.854,144.6 781.354,289.6 1023,434.5C 1023.5,289.5 1023.67,144.5 1023.5,-0.5C 1057.5,-0.5 1091.5,-0.5 1125.5,-0.5C 1125.5,204.167 1125.5,408.833 1125.5,613.5C 750.167,613.5 374.833,613.5 -0.5,613.5C -0.5,579.5 -0.5,545.5 -0.5,511.5C 184.167,511.667 368.834,511.5 553.5,511C 368.685,400.338 184.018,289.505 -0.5,178.5C -0.5,158.833 -0.5,139.167 -0.5,119.5C 217.443,249.474 435.109,379.974 652.5,511C 719.167,511.667 785.833,511.667 852.5,511C 568.271,340.726 284.271,170.226 0.5,-0.5 Z"/></g>
<g><path style="opacity:1" fill="#012169" d="M 298.5,-0.5 C 540.167,-0.5 781.833,-0.5 1023.5,-0.5C 1023.67,144.5 1023.5,289.5 1023,434.5C 781.354,289.6 539.854,144.6 298.5,-0.5 Z"/></g>
<g><path style="opacity:1" fill="#c8112e" d="M 1125.5,-0.5 C 1228.17,-0.5 1330.83,-0.5 1433.5,-0.5C 1433.5,204.167 1433.5,408.833 1433.5,613.5C 1808.83,613.5 2184.17,613.5 2559.5,613.5C 2559.5,716.167 2559.5,818.833 2559.5,921.5C 2184.17,921.5 1808.83,921.5 1433.5,921.5C 1433.5,1126.17 1433.5,1330.83 1433.5,1535.5C 1330.83,1535.5 1228.17,1535.5 1125.5,1535.5C 1125.5,1330.83 1125.5,1126.17 1125.5,921.5C 750.167,921.5 374.833,921.5 -0.5,921.5C -0.5,818.833 -0.5,716.167 -0.5,613.5C 374.833,613.5 750.167,613.5 1125.5,613.5C 1125.5,408.833 1125.5,204.167 1125.5,-0.5 Z"/></g>
<g><path style="opacity:1" fill="#fefefe" d="M 1433.5,-0.5 C 1467.5,-0.5 1501.5,-0.5 1535.5,-0.5C 1535.33,144.5 1535.5,289.5 1536,434.5C 1777.65,289.6 2019.15,144.6 2260.5,-0.5C 2293.5,-0.5 2326.5,-0.5 2359.5,-0.5C 2084.98,164.348 1810.48,329.348 1536,494.5C 1535.5,500.157 1535.33,505.824 1535.5,511.5C 1592.83,511.667 1650.17,511.5 1707.5,511C 1991.34,340.637 2275,170.137 2558.5,-0.5C 2558.83,-0.5 2559.17,-0.5 2559.5,-0.5C 2559.5,59.1667 2559.5,118.833 2559.5,178.5C 2374.98,289.505 2190.31,400.338 2005.5,511C 2190.17,511.5 2374.83,511.667 2559.5,511.5C 2559.5,545.5 2559.5,579.5 2559.5,613.5C 2184.17,613.5 1808.83,613.5 1433.5,613.5C 1433.5,408.833 1433.5,204.167 1433.5,-0.5 Z"/></g>
<g><path style="opacity:1" fill="#012169" d="M 1535.5,-0.5 C 1777.17,-0.5 2018.83,-0.5 2260.5,-0.5C 2019.15,144.6 1777.65,289.6 1536,434.5C 1535.5,289.5 1535.33,144.5 1535.5,-0.5 Z"/></g>
<g><path style="opacity:1" fill="#c8112e" d="M 2359.5,-0.5 C 2425.83,-0.5 2492.17,-0.5 2558.5,-0.5C 2275,170.137 1991.34,340.637 1707.5,511C 1650.17,511.5 1592.83,511.667 1535.5,511.5C 1535.33,505.824 1535.5,500.157 1536,494.5C 1810.48,329.348 2084.98,164.348 2359.5,-0.5 Z"/></g>
<g><path style="opacity:1" fill="#c8112e" d="M -0.5,-0.5 C -0.166667,-0.5 0.166667,-0.5 0.5,-0.5C 284.271,170.226 568.271,340.726 852.5,511C 785.833,511.667 719.167,511.667 652.5,511C 435.109,379.974 217.443,249.474 -0.5,119.5C -0.5,79.5 -0.5,39.5 -0.5,-0.5 Z"/></g>
<g><path style="opacity:1" fill="#012169" d="M -0.5,178.5 C 184.018,289.505 368.685,400.338 553.5,511C 368.834,511.5 184.167,511.667 -0.5,511.5C -0.5,400.5 -0.5,289.5 -0.5,178.5 Z"/></g>
<g><path style="opacity:1" fill="#012169" d="M 2559.5,178.5 C 2559.5,289.5 2559.5,400.5 2559.5,511.5C 2374.83,511.667 2190.17,511.5 2005.5,511C 2190.31,400.338 2374.98,289.505 2559.5,178.5 Z"/></g>
<g><path style="opacity:1" fill="#fefefe" d="M -0.5,921.5 C 374.833,921.5 750.167,921.5 1125.5,921.5C 1125.5,1126.17 1125.5,1330.83 1125.5,1535.5C 1091.5,1535.5 1057.5,1535.5 1023.5,1535.5C 1023.67,1390.5 1023.5,1245.5 1023,1100.5C 781.354,1245.4 539.854,1390.4 298.5,1535.5C 265.5,1535.5 232.5,1535.5 199.5,1535.5C 474.019,1370.65 748.519,1205.65 1023,1040.5C 1023.5,1034.84 1023.67,1029.18 1023.5,1023.5C 966.166,1023.33 908.832,1023.5 851.5,1024C 567.663,1194.36 283.996,1364.86 0.5,1535.5C 0.166667,1535.5 -0.166667,1535.5 -0.5,1535.5C -0.5,1475.83 -0.5,1416.17 -0.5,1356.5C 184.018,1245.49 368.685,1134.66 553.5,1024C 368.834,1023.5 184.167,1023.33 -0.5,1023.5C -0.5,989.5 -0.5,955.5 -0.5,921.5 Z"/></g>
<g><path style="opacity:1" fill="#fefefe" d="M 2559.5,921.5 C 2559.5,955.5 2559.5,989.5 2559.5,1023.5C 2374.83,1023.33 2190.17,1023.5 2005.5,1024C 2190.31,1134.66 2374.98,1245.49 2559.5,1356.5C 2559.5,1376.17 2559.5,1395.83 2559.5,1415.5C 2341.56,1285.53 2123.89,1155.03 1906.5,1024C 1839.83,1023.33 1773.17,1023.33 1706.5,1024C 1990.73,1194.27 2274.73,1364.77 2558.5,1535.5C 2459.17,1535.5 2359.83,1535.5 2260.5,1535.5C 2019.15,1390.4 1777.65,1245.4 1536,1100.5C 1535.5,1245.5 1535.33,1390.5 1535.5,1535.5C 1501.5,1535.5 1467.5,1535.5 1433.5,1535.5C 1433.5,1330.83 1433.5,1126.17 1433.5,921.5C 1808.83,921.5 2184.17,921.5 2559.5,921.5 Z"/></g>
<g><path style="opacity:1" fill="#012169" d="M -0.5,1023.5 C 184.167,1023.33 368.834,1023.5 553.5,1024C 368.685,1134.66 184.018,1245.49 -0.5,1356.5C -0.5,1245.5 -0.5,1134.5 -0.5,1023.5 Z"/></g>
<g><path style="opacity:1" fill="#c8112e" d="M 199.5,1535.5 C 133.167,1535.5 66.8333,1535.5 0.5,1535.5C 283.996,1364.86 567.663,1194.36 851.5,1024C 908.832,1023.5 966.166,1023.33 1023.5,1023.5C 1023.67,1029.18 1023.5,1034.84 1023,1040.5C 748.519,1205.65 474.019,1370.65 199.5,1535.5 Z"/></g>
<g><path style="opacity:1" fill="#c8112e" d="M 2559.5,1415.5 C 2559.5,1455.5 2559.5,1495.5 2559.5,1535.5C 2559.17,1535.5 2558.83,1535.5 2558.5,1535.5C 2274.73,1364.77 1990.73,1194.27 1706.5,1024C 1773.17,1023.33 1839.83,1023.33 1906.5,1024C 2123.89,1155.03 2341.56,1285.53 2559.5,1415.5 Z"/></g>
<g><path style="opacity:1" fill="#012169" d="M 2559.5,1023.5 C 2559.5,1134.5 2559.5,1245.5 2559.5,1356.5C 2374.98,1245.49 2190.31,1134.66 2005.5,1024C 2190.17,1023.5 2374.83,1023.33 2559.5,1023.5 Z"/></g>
<g><path style="opacity:1" fill="#012169" d="M 1023.5,1535.5 C 781.833,1535.5 540.167,1535.5 298.5,1535.5C 539.854,1390.4 781.354,1245.4 1023,1100.5C 1023.5,1245.5 1023.67,1390.5 1023.5,1535.5 Z"/></g>
<g><path style="opacity:1" fill="#012169" d="M 2260.5,1535.5 C 2018.83,1535.5 1777.17,1535.5 1535.5,1535.5C 1535.33,1390.5 1535.5,1245.5 1536,1100.5C 1777.65,1245.4 2019.15,1390.4 2260.5,1535.5 Z"/></g>
</svg>
